Numix/16/status/indicator-keyboard-Th-3.svg

<?xml version="1.0" encoding="UTF-8" standalone="no"?>
<svg
   xmlns:dc="http://purl.org/dc/elements/1.1/"
   xmlns:cc="http://creativecommons.org/ns#"
   xmlns:rdf="http://www.w3.org/1999/02/22-rdf-syntax-ns#"
   xmlns:svg="http://www.w3.org/2000/svg"
   xmlns="http://www.w3.org/2000/svg"
   xmlns:sodipodi="http://sodipodi.sourceforge.net/DTD/sodipodi-0.dtd"
   xmlns:inkscape="http://www.inkscape.org/namespaces/inkscape"
   viewBox="0 0 16 16"
   id="svg2"
   version="1.1"
   inkscape:version="0.91 r13725"
   sodipodi:docname="indicator-keyboard-Th-3.svg">
  <metadata
     id="metadata14">
    <rdf:RDF>
      <cc:Work
         rdf:about="">
        <dc:format>image/svg+xml</dc:format>
        <dc:type
           rdf:resource="http://purl.org/dc/dcmitype/StillImage" />
      </cc:Work>
    </rdf:RDF>
  </metadata>
  <defs
     id="defs12" />
  <sodipodi:namedview
     pagecolor="#ffffff"
     bordercolor="#666666"
     borderopacity="1"
     objecttolerance="10"
     gridtolerance="10"
     guidetolerance="10"
     inkscape:pageopacity="0"
     inkscape:pageshadow="2"
     inkscape:window-width="459"
     inkscape:window-height="369"
     id="namedview10"
     showgrid="false"
     inkscape:zoom="14.75"
     inkscape:cx="8"
     inkscape:cy="8"
     inkscape:window-x="65"
     inkscape:window-y="24"
     inkscape:window-maximized="0"
     inkscape:current-layer="svg2" />
  <path
     style="fill:#ececec;fill-opacity:1"
     d="M 1.5996094 0 C 0.71320937 2.9605947e-16 0 0.71320937 0 1.5996094 L 0 14.400391 C 2.9605947e-16 15.286791 0.71320937 16 1.5996094 16 L 14.400391 16 C 15.286791 16 16 15.286791 16 14.400391 L 16 1.5996094 C 16 0.71320937 15.286791 0 14.400391 0 L 1.5996094 0 z M 7.7792969 4.1113281 L 7.7792969 6.578125 C 7.9712969 6.506125 8.1672344 6.4520156 8.3652344 6.4160156 C 8.5632344 6.3740156 8.7609844 6.3535156 8.9589844 6.3535156 C 9.3189844 6.3535156 9.619375 6.4038594 9.859375 6.5058594 C 10.099375 6.6078594 10.291547 6.7552656 10.435547 6.9472656 C 10.579547 7.1332656 10.678422 7.3570938 10.732422 7.6210938 C 10.792422 7.8850938 10.822266 8.1761406 10.822266 8.4941406 L 10.822266 11.095703 L 10.236328 11.095703 L 10.236328 8.6835938 C 10.236328 8.3535938 10.214016 8.0756562 10.166016 7.8476562 C 10.124016 7.6196563 10.047453 7.4330625 9.9394531 7.2890625 C 9.8374531 7.1450625 9.6993906 7.0424219 9.5253906 6.9824219 C 9.3513906 6.9164219 9.1331406 6.8847656 8.8691406 6.8847656 C 8.7671406 6.8847656 8.6571094 6.8921562 8.5371094 6.9101562 C 8.4231094 6.9281563 8.3148906 6.9506094 8.2128906 6.9746094 C 8.1108906 6.9926094 8.0175937 7.0131094 7.9335938 7.0371094 C 7.8555937 7.0611094 7.8032969 7.0797969 7.7792969 7.0917969 L 7.7792969 11.095703 L 7.1953125 11.095703 L 7.1953125 4.2207031 L 7.7792969 4.1113281 z M 1.6445312 4.859375 L 6.2519531 4.859375 L 6.2519531 5.390625 L 4.2539062 5.390625 L 4.2539062 11.095703 L 3.6425781 11.095703 L 3.6425781 5.390625 L 1.6445312 5.390625 L 1.6445312 4.859375 z M 12.986328 8.7539062 C 13.189128 8.7539062 13.363512 8.7793781 13.507812 8.8300781 C 13.656012 8.8807781 13.779453 8.953275 13.876953 9.046875 C 13.974453 9.136575 14.04695 9.2463 14.09375 9.375 C 14.14055 9.4997999 14.164062 9.6350031 14.164062 9.7832031 C 14.164062 10.021103 14.099403 10.217041 13.970703 10.369141 C 13.845903 10.517341 13.683275 10.625106 13.484375 10.691406 C 13.593575 10.718706 13.699381 10.759859 13.800781 10.818359 C 13.906081 10.872959 14.000131 10.945456 14.082031 11.035156 C 14.163931 11.120956 14.228597 11.226762 14.279297 11.351562 C 14.329997 11.476363 14.355469 11.623316 14.355469 11.791016 C 14.355469 11.962616 14.324119 12.119372 14.261719 12.263672 C 14.203219 12.407972 14.115041 12.535331 13.994141 12.644531 C 13.877141 12.749831 13.726269 12.834084 13.542969 12.896484 C 13.359669 12.954984 13.146091 12.984375 12.900391 12.984375 C 12.771691 12.984375 12.652169 12.974578 12.542969 12.955078 C 12.437669 12.939478 12.343619 12.919884 12.261719 12.896484 C 12.179819 12.873084 12.109281 12.849572 12.050781 12.826172 C 11.996181 12.802772 11.955034 12.783178 11.927734 12.767578 L 12.027344 12.427734 C 12.050744 12.443334 12.089931 12.462928 12.144531 12.486328 C 12.199131 12.509728 12.263791 12.533241 12.337891 12.556641 C 12.415891 12.576141 12.502103 12.593775 12.595703 12.609375 C 12.693203 12.624975 12.799009 12.632813 12.912109 12.632812 C 13.282609 12.632812 13.547131 12.556397 13.707031 12.404297 C 13.866931 12.248297 13.947266 12.040597 13.947266 11.779297 C 13.947266 11.607697 13.913956 11.464662 13.847656 11.351562 C 13.785256 11.238462 13.697084 11.148331 13.583984 11.082031 C 13.474784 11.011831 13.345466 10.962847 13.197266 10.935547 C 13.052966 10.904347 12.900128 10.888672 12.736328 10.888672 L 12.677734 10.888672 L 12.677734 10.574219 L 12.8125 10.574219 C 12.9178 10.574219 13.023612 10.564422 13.132812 10.544922 C 13.245912 10.521522 13.3478 10.480375 13.4375 10.421875 C 13.5311 10.363375 13.607516 10.285 13.666016 10.1875 C 13.728416 10.09 13.759766 9.9646001 13.759766 9.8125 C 13.759766 9.6838 13.738212 9.5760281 13.695312 9.4863281 C 13.652412 9.3927281 13.593631 9.3182719 13.519531 9.2636719 C 13.449331 9.2090719 13.365078 9.1698844 13.267578 9.1464844 C 13.173978 9.1191844 13.076003 9.1054687 12.970703 9.1054688 C 12.760103 9.1054688 12.595516 9.1348594 12.478516 9.1933594 C 12.361516 9.2518594 12.265506 9.3067219 12.191406 9.3574219 L 12.027344 9.0585938 C 12.066344 9.0312937 12.115328 8.9999437 12.173828 8.9648438 C 12.236228 8.9297437 12.308725 8.8964344 12.390625 8.8652344 C 12.472525 8.8340344 12.562656 8.8085625 12.660156 8.7890625 C 12.761556 8.7656625 12.869328 8.7539062 12.986328 8.7539062 z "
     id="path4" />
</svg>

<svg xmlns="http://www.w3.org/2000/svg" viewBox="0 0 16 16">
 <path d="m 1.6 0 c -0.886 0 -1.6 0.713 -1.6 1.6 l 0 12.801 c 0 0.886 0.713 1.6 1.6 1.6 l 12.801 0 c 0.886 0 1.6 -0.713 1.6 -1.6 l 0 -12.801 c 0 -0.886 -0.713 -1.6 -1.6 -1.6 l -12.801 0 z m 6.18 4.111 l 0 2.467 c 0.192 -0.072 0.388 -0.126 0.586 -0.162 c 0.198 -0.042 0.396 -0.063 0.594 -0.063 c 0.36 0 0.66 0.05 0.9 0.152 c 0.24 0.102 0.432 0.249 0.576 0.441 c 0.144 0.186 0.243 0.41 0.297 0.674 c 0.06 0.264 0.09 0.555 0.09 0.873 l 0 2.602 l -0.586 0 l 0 -2.412 c 0 -0.33 -0.022 -0.608 -0.07 -0.836 c -0.042 -0.228 -0.119 -0.415 -0.227 -0.559 c -0.102 -0.144 -0.24 -0.247 -0.414 -0.307 c -0.174 -0.066 -0.392 -0.098 -0.656 -0.098 c -0.102 0 -0.212 0.007 -0.332 0.025 c -0.114 0.018 -0.222 0.04 -0.324 0.064 c -0.102 0.018 -0.195 0.038 -0.279 0.063 c -0.078 0.024 -0.13 0.043 -0.154 0.055 l 0 4 l -0.584 0 l 0 -6.875 l 0.584 -0.109 z m -6.135 0.748 l 4.607 0 l 0 0.531 l -1.998 0 l 0 5.705 l -0.611 0 l 0 -5.705 l -1.998 0 l 0 -0.531 z m 11.342 3.895 c 0.203 0 0.377 0.025 0.521 0.076 c 0.148 0.051 0.272 0.123 0.369 0.217 c 0.098 0.09 0.17 0.199 0.217 0.328 c 0.047 0.125 0.07 0.26 0.07 0.408 c 0 0.238 -0.065 0.434 -0.193 0.586 c -0.125 0.148 -0.287 0.256 -0.486 0.322 c 0.109 0.027 0.215 0.068 0.316 0.127 c 0.105 0.055 0.199 0.127 0.281 0.217 c 0.082 0.086 0.147 0.192 0.197 0.316 c 0.051 0.125 0.076 0.272 0.076 0.439 c 0 0.172 -0.031 0.328 -0.094 0.473 c -0.058 0.144 -0.147 0.272 -0.268 0.381 c -0.117 0.105 -0.268 0.19 -0.451 0.252 c -0.183 0.059 -0.397 0.088 -0.643 0.088 c -0.129 0 -0.248 -0.01 -0.357 -0.029 c -0.105 -0.016 -0.199 -0.035 -0.281 -0.059 c -0.082 -0.023 -0.152 -0.047 -0.211 -0.07 c -0.055 -0.023 -0.096 -0.043 -0.123 -0.059 l 0.1 -0.34 c 0.023 0.016 0.063 0.035 0.117 0.059 c 0.055 0.023 0.119 0.047 0.193 0.07 c 0.078 0.019 0.164 0.037 0.258 0.053 c 0.098 0.016 0.203 0.023 0.316 0.023 c 0.371 0 0.635 -0.076 0.795 -0.229 c 0.16 -0.156 0.24 -0.364 0.24 -0.625 c 0 -0.172 -0.033 -0.315 -0.1 -0.428 c -0.062 -0.113 -0.151 -0.203 -0.264 -0.27 c -0.109 -0.07 -0.239 -0.119 -0.387 -0.146 c -0.144 -0.031 -0.297 -0.047 -0.461 -0.047 l -0.059 0 l 0 -0.314 l 0.135 0 c 0.105 0 0.211 -0.01 0.32 -0.029 c 0.113 -0.023 0.215 -0.065 0.305 -0.123 c 0.094 -0.059 0.17 -0.137 0.229 -0.234 c 0.062 -0.098 0.094 -0.223 0.094 -0.375 c 0 -0.129 -0.022 -0.236 -0.064 -0.326 c -0.043 -0.094 -0.102 -0.168 -0.176 -0.223 c -0.07 -0.055 -0.154 -0.094 -0.252 -0.117 c -0.094 -0.027 -0.192 -0.041 -0.297 -0.041 c -0.211 0 -0.375 0.029 -0.492 0.088 c -0.117 0.059 -0.213 0.113 -0.287 0.164 l -0.164 -0.299 c 0.039 -0.027 0.088 -0.059 0.146 -0.094 c 0.062 -0.035 0.135 -0.068 0.217 -0.1 c 0.082 -0.031 0.172 -0.057 0.27 -0.076 c 0.101 -0.023 0.209 -0.035 0.326 -0.035 z" style="fill:#ececec;fill-opacity:1"/>
</svg>
